T: Les Doigts De Carmen
M: 4/4
L: 1/8
K: Edor
E2GA BGAB | EGBd c2A2 |1 cBce BABd | ABAG F2GF :|2 cBce dcdg | fefd e4 ||
gagf  efgf | gagf defe | fafe defd |1 e2ed B4:|2 efed e4 ||
